!!!!SEGMENT: pl-gd--ee-1638--003-014_marenzio-luca--madrigali-a-quatro-voci-vezzosi-augelli.krn
!!!cenid: 15xx:988
!!!COM: Marenzio, Luca
!!!COM-rismID: pe30003955
!!!CDT: ~1553-1599/08/22
!!!CNT: Italian
!!!GTL: Madrigali a quatro voci
!!!OTL: Vezzosi augelli
!!!OMV: 014
!!!PDT: 1587
!!!AGN:
!!!SMS-siglum: PL-GD
!!!SMS-shelfmark: Ee 1638
!!!SMS-shelfwork: 003-014 G
!!!SMS-variant:
!!!SMS-altvar:
!!!NIFC-rismSourceID: 990039322
!!!NIFC-islandoraID: pl-gd:57883
!!!URL-pdf-islandora: https://repozytorium.nifc.pl/islandora/object/pl-gd%3A57883/datastream/PDF/view
!!!URL-scan: https://polish.musicsources.pl/pl/lokalizacje/galeria/klocki-introligatorskie/655 @EN{Scan on Polish Music Sources Website} @PL{Skany w portalu Dziedzictwo Muzyki Polskiej w otwartym dostępie}
!!!ONB-nifc: UWAGA: zbiór na stronach: Canto: s. 637-653, Alto: s. do 486-501, Tenore: s. do 334-349, Bassus: s. do 182-197. Uwaga: utwory podzielone wg tytułów w spisach treści dostępnych na końcu każdej księgi głosowej.
!!!AIN: 1 alto 1 bass 1 soprn 1 tenor
!!!key: a:aeo
**kern	**text	**kern	**text	**kern	**text	**kern	**text
*part4	*part4	*part3	*part3	*part2	*part2	*part1	*part1
*staff4	*staff4	*staff3	*staff3	*staff2	*staff2	*staff1	*staff1
*I"BASSO	*	*I"TENORE	*	*I"ALTO	*	*I"CANTO	*
*I'B	*	*I'T	*	*I'A	*	*I'C	*
*Ibass	*	*Itenor	*	*Ialto	*	*Isoprn	*
*ICvox	*	*ICvox	*	*ICvox	*	*ICvox	*
*clefF4	*	*clefC4	*	*clefC3	*	*clefC1	*
*k[]	*	*k[]	*	*k[]	*	*k[]	*
*a:aeo	*	*a:aeo	*	*a:aeo	*	*a:aeo	*
*M2/1	*	*M2/1	*	*M2/1	*	*M2/1	*
=1-	=1-	=1-	=1-	=1-	=1-	=1-	=1-
!LO:TX:b:t=VEzzoxi augelli.	!	!	!	!	!	!	!
!LO:TX:a:t=Skan 189	!	!LO:TX:a:t=Skan 341	!	!LO:TX:a:t=Skan 493	!	!LO:TX:a:t=Skan 645	!
00r	.	1A	VEz-	4r	.	4r	.
.	.	.	.	4a\	VEz-	4cc\	VEz-
.	.	.	.	4a\	-za-	4cc\	-zo-
.	.	.	.	8g\	.	8b\	.
.	.	.	.	8f\	.	8a\	.
.	.	1c	-zo-	4e\	.	4g/	.
.	.	.	.	8A/	-ſi	8c/	-ſi
.	.	.	.	8B/	au-	8d/	au-
.	.	.	.	8c/	.	8e/	.
.	.	.	.	8d\	.	8f/	.
.	.	.	.	8e\	.	8g/	.
.	.	.	.	8f\	.	8a\	.
=2-	=2-	=2-	=2-	=2-	=2-	=2-	=2-
.	.	1G	-ſi au-	4.g\	.	4b\	.
.	.	.	.	.	.	8g\	-gel-
.	.	.	.	16f\	.	8a\	.
.	.	.	.	16e\	.	.	.
.	.	.	.	4d\	.	8b\	.
.	.	.	.	.	.	8cc\	.
.	.	.	.	2g\	-gel-	8dd\	.
.	.	.	.	.	.	8b\	.
.	.	1A	-gel-	.	.	4cc\	.
.	.	.	.	8f\	.	4.dd\	.
.	.	.	.	8e\	.	.	.
.	.	.	.	4f\	.	.	.
.	.	.	.	.	.	8cc\	.
.	.	.	.	8e\	.	2cc\	.
.	.	.	.	8d\	.	.	.
=3-	=3-	=3-	=3-	=3-	=3-	=3-	=3-
00r	.	1G	-li	4e\	.	.	.
.	.	.	.	8d\	.	8b\	.
.	.	.	.	8c\	.	8a\	.
.	.	.	.	2d\	.	2b\	.
!	!	!	!	!LO:SIC:v:t=custos c	!	!LO:SIC:v:t=custos g	!
!	!	!	!	!LO:LB:g=original	!	!LO:LB:g=original	!
.	.	4r	.	2c/	-li	1cc	-li
.	.	4c\	in	.	.	.	.
.	.	4.c\	fra-	4r	.	.	.
.	.	.	.	4g\	in	.	.
.	.	8d\	-le	.	.	.	.
=4-	=4-	=4-	=4-	=4-	=4-	=4-	=4-
.	.	4e\	ver-	4.g\	fra-	2r	.
.	.	4B\	-di	.	.	.	.
.	.	.	.	8f\	-le	.	.
.	.	4c\	fron-	4.e\	ver-	1g	in
.	.	4G/	-de	.	.	.	.
.	.	.	.	8B/	-di	.	.
.	.	4r	.	4c/	fron-	.	.
.	.	4d\	/in	4G/	-de	.	.
.	.	4.d\	fra-	4r	.	1a\	fra-
.	.	.	.	4d\	/in	.	.
.	.	8e\	-le	.	.	.	.
=5-	=5-	=5-	=5-	=5-	=5-	=5-	=5-
00r	.	4.f\	ver-	4.d\	fra-	.	.
.	.	8c\	-di	8e\	-le	.	.
.	.	4d\	fron-	4.f\	ver-	1a	-le
.	.	4A/	-de/	.	.	.	.
.	.	.	.	8c/	-di	.	.
.	.	4r	.	4d\	fron-	.	.
.	.	4e\	in	4A/	-de/	.	.
!	!	!LO:SIC:v:t=custos e	!	!	!	!	!
.	.	4.e\	fra-	4r	.	1b\	ver-
.	.	.	.	4e\	in	.	.
.	.	8f\	-le	.	.	.	.
!	!	!LO:LB:g=original	!	!	!	!	!
=6-	=6-	=6-	=6-	=6-	=6-	=6-	=6-
.	.	4.g\	ver-	4.e\	fra-	.	.
.	.	8d\	-di	8f\	-le	.	.
.	.	4.e\	fron-	2g\	ver-	2b\	-di
.	.	8d\	.	.	.	.	.
.	.	4.c\	.	4e\	-di	4.ee\	fron-
.	.	.	.	2a\	fron-	.	.
.	.	8d\	.	.	.	16dd\	.
.	.	.	.	.	.	16cc\	.
.	.	2e\	-de	.	.	2b\	.
.	.	.	.	4g#X\	.	.	.
!	!	!	!	!LO:SIC:v:t=custos a	!	!	!
!	!	!	!	!LO:LB:g=original	!	!	!
=7-	=7-	=7-	=7-	=7-	=7-	=7-	=7-
4r	.	2A/	.	4.a\	-de	4a\	-de
4.A\	Tem-	.	.	.	.	4.cc\	Te-
.	.	.	.	16gny\	.	.	.
.	.	.	.	16f\	.	.	.
.	.	2r	.	2e\	.	.	.
8A\	-pra-	.	.	.	.	8cc\	-pra-
4G\	-no a	.	.	.	.	4b\	-no a
2F\	pro-	2r	.	4r	.	2a\	pro-
.	.	.	.	4.f\	Te-	.	.
2C/	-ua	4r	.	.	.	2g/	-ua
.	.	.	.	8f\	-pra-	.	.
.	.	4.c\	Te-	4e\	-no a	.	.
=8-	=8-	=8-	=8-	=8-	=8-	=8-	=8-
2G\	la-	.	.	2d\	pro-	4r	.
.	.	8c\	-pra-	.	.	.	.
.	.	4B\	-no a	.	.	4.g/	Te-
2D/	-ſciu-	2A/	pro-	4d\	-ua	.	.
.	.	.	.	.	.	8g/	-pra-
.	.	.	.	4.d\	/Te-	4f/	-no a
4.E\	-et-	2G/	-ua	.	.	2e/	pro-
.	.	.	.	8d\	-pra-	.	.
.	.	.	.	4c/	-no a	.	.
8F\	-te	.	.	.	.	.	.
2G\	no-	2r	.	2B/	pro-	2d/	-ua
=9-	=9-	=9-	=9-	=9-	=9-	=9-	=9-
2C/	-te	2c\	la-	2e\	-ua/	4g/	la
.	.	.	.	.	.	4a\	ſciu-
2G\	la-	2B\	-ſiu-	4d\	la	4b\	-et-
!LO:SIC:v:t=custos D	!	!	!	!	!	!	!
!	!	!	!	!	!	!LO:SIC:v:t=custos dd	!
.	.	.	.	4e\	ſciu-	4cc\	-te
!LO:LB:g=original	!	!	!	!	!	!	!
!	!	!	!	!	!	!LO:LB:g=original	!
2D/	-ſciu-	4A/	-et-	8f\	-et-	8dd\	no-
.	.	.	.	8e\	.	8cc\	.
.	.	2B\	-te	8d\	.	8b\	.
.	.	.	.	8c\	.	8a\	.
4.E\	-et-	.	.	4B/	.	4.g/	.
.	.	2c\	no-	4g\	-te	.	.
8F\	-te	.	.	.	.	16f/	.
.	.	.	.	.	.	16e/	.
=10-	=10-	=10-	=10-	=10-	=10-	=10-	=10-
1G	no-	.	.	1g	no-	1d	.
.	.	8B\	.	.	.	.	.
.	.	8A\	.	.	.	.	.
.	.	2B\	.	.	.	.	.
1C	-ta	1c	-te	1g	-te	1e	-te
!	!	!	!	!LO:SIC:v:t=custos g	!	!	!
!	!	!LO:SIC:v:t=custos C	!	!	!	!	!
!	!	!LO:LB:g=original	!	!LO:LB:g=original	!	!	!
=11-	=11-	=11-	=11-	=11-	=11-	=11-	=11-
4.c\	Mor-	8C/	Mor-	4r	.	4.ee\	Mor-
.	.	8D/	.	.	.	.	.
.	.	8E/	.	4.g\	Mor-	.	.
16B\	.	8F/	.	.	.	16dd\	.
16A\	.	.	.	.	.	16cc\	.
4.G\	.	8G/	.	.	.	4.b\	.
.	.	8A/	.	16f\	.	.	.
.	.	.	.	16e\	.	.	.
.	.	8B\	.	4.d\	.	.	.
16F\	.	8c\	.	.	.	16a\	.
16E\	.	.	.	.	.	16g\	.
4.D/	.	8d\	.	.	.	4.f/	.
.	.	8e\	.	8c\	.	.	.
.	.	8f\	.	8d\	.	.	.
16C/	.	8g\	.	8e\	.	16e/	.
16BB/	.	.	.	.	.	16d/	.
4.AA/	.	4.a\	.	4.f#X\	.	4.c/	.
8AA/	-mo-	8a\	-mo-	8f#\	-mo-	8c/	-mo-
=12-	=12-	=12-	=12-	=12-	=12-	=12-	=12-
2GG/	-ra	2d\	-ra	2g\	-ra	2B/	-ra
1C	l'au-	1e	l' au-	1g	l'au-	1c	l'au-
2FF/	-ra	2A/	-ra e	2fny\	-ra	2c/	-ra
=13-	=13-	=13-	=13-	=13-	=13-	=13-	=13-
4r	.	2c\	ſa	4r	.	4r	.
4F\	e	.	.	4f\	e	4a\	e
2A\	ſa	4r	.	2e\	ſa	2cc\	ſa
.	.	4A/	e	.	.	.	.
4r	.	2c\	ſa	4r	.	4r	.
4A\	e	.	.	4a\	e	4ee\	e
4c\	ſa	4r	.	2g\	ſa	4ee\	ſa
!	!	!	!	!	!	!LO:SIC:v:t=custos cc	!
!	!	!	!	!	!	!LO:LB:g=original	!
4G\	le	4B\	le-	.	.	4dd\	le
!LO:LB:g=original	!	!	!	!	!	!	!
!LO:SIC:v:t=custos A	!	!	!	!	!	!	!
=14-	=14-	=14-	=14-	=14-	=14-	=14-	=14-
4.A\	ſo-	4.c\	-ſo-	4e\	le	4.cc\	ſo-
.	.	.	.	4.f\	ſo-	.	.
8F\	.	8d\	.	.	.	8a\	.
4.G\	.	4.B\	.	.	.	4.b\	.
.	.	.	.	8e\	.	.	.
.	.	.	.	4.e\	.	.	.
8E\	.	8c\	.	.	.	8g\	.
4.F\	.	4.A/	.	.	.	4.a\	.
.	.	.	.	8d\	.	.	.
.	.	.	.	2d\	.	.	.
8D\	.	8B\	.	.	.	8f#X/	.
2E\	.	2G/	.	.	.	1g\	-glie
.	.	.	.	4c#X/	.	.	.
!	!	!LO:SIC:v:t=custos A	!	!	!	!	!
!	!	!LO:LB:g=original	!	!	!	!	!
!	!	!	!	!	!LO:LB:g=original	!	!
=15-	=15-	=15-	=15-	=15-	=15-	=15-	=15-
1D	-glie	1A	-glie	1d	-glie	.	.
!	!	!	!	!LO:SIC:v:t=custos e	!	!	!
.	.	.	.	.	.	2f#X/	el'
8G\	el'on-	0B 0c	e l'on-	1r	.	1g	on-
8F\	.	.	.	.	.	.	.
8E\	.	.	.	.	.	.	.
8F\	.	.	.	.	.	.	.
8G\	.	.	.	.	.	.	.
8F\	.	.	.	.	.	.	.
8E\	.	.	.	.	.	.	.
8D/	.	.	.	.	.	.	.
=16-	=16-	=16-	=16-	=16-	=16-	=16-	=16-
8C/	.	.	.	1e	e	2.g/	-de
8D/	.	.	.	.	.	.	.
8E\	.	.	.	.	.	.	.
8D/	.	.	.	.	.	.	.
8C/	.	.	.	.	.	.	.
8BB/	.	.	.	.	.	.	.
8AA/	.	.	.	.	.	4a\	el'
8GG/	.	.	.	.	.	.	.
2FF/	.	2c\	-de	2f\	l'on-	2a\	on-
4FF/	-de	4r	.	2cny/	-de	2a\	-de
4F\	Ga-	4A/	Ga-	.	.	.	.
!LO:LB:g=original	!	!	!	!	!	!	!
!LO:SIC:v:t=custos E	!	!	!	!	!	!	!
=17-	=17-	=17-	=17-	=17-	=17-	=17-	=17-
8E\	-rir	8G/	-rir	4r	.	4r	.
8F\	.	8A/	.	.	.	.	.
4G\	.	4B\	.	4d\	Ga-	4g/	Ga-
4r	.	4r	.	8f\	-rir	8a\	-rir
.	.	.	.	8g\	.	8b\	.
4F\	Ga-	4A/	Ga-	4a\	.	4cc\	.
8E\	-rir	8G/	-rir	4r	.	4r	.
8F\	.	8A/	.	.	.	.	.
4G\	.	4B\	.	4d\	Ga-	4g/	Ga-
4r	.	4r	.	8f\	-rir	8a\	-rir
.	.	.	.	8g\	.	8b\	.
4F\	che	4A/	che	4a\	.	4cc\	.
=18-	=18-	=18-	=18-	=18-	=18-	=18-	=18-
!	!	!	!	!	!	!LO:LB:g=original	!
4.G\	va-	4.B\	va-	4r	.	4r	.
.	.	.	.	4d\	che	4g/	che
8G\	-ria-	8B\	-ria-	.	.	.	.
2A\	-men-	2c#X\	-men-	4.a\	va-	4.e/	va-
!	!	!	!	!	!	!LO:SIC:v:t=custos a	!
.	.	.	.	8a\	-ria-	8e/	-ria-
4D/	-te	4d\	-te	2f\	-men-	2a\	-me-
8D/	ella	8d\	ella	.	.	.	.
8D/	per-	8d\	per-	.	.	.	.
2G\	-co-	2B\	-co-	4d\	-te	4g/	-te
.	.	.	.	8d\	ella	8g/	ella
.	.	.	.	8d\	per-	8g/	per-
=19-	=19-	=19-	=19-	=19-	=19-	=19-	=19-
1C	-te	1nyc	-te	2e\	-co-	2g/	-co-
.	.	.	.	2g\	-te	2e/	-te
1.F	Quan-	2r	.	2r	.	2r	.
.	.	1A\	Qua-	1c\	Quan-	1fny/	Qua
!	!	!	!	!LO:LB:g=original	!	!	!
=20-	=20-	=20-	=20-	=20-	=20-	=20-	=20-
.	.	.	.	.	.	.	.
2BB-X/	-do	2F/	-do	2B-X/	-do	2d/	do
!	!	!	!	!LO:SIC:v:t=custos B	!	!	!
!	!	!LO:SIC:v:t=custos F	!	!	!	!	!
!	!	!LO:LB:g=original	!	!	!	!	!
1BB-	tac-	1F	tac-	1B-	tac-	1d	ta-
=21-	=21-	=21-	=21-	=21-	=21-	=21-	=21-
2FF/	-cion	2F/	-cio	2A/	-cio	2c/	-cio
2GG/	gl' au-	2D/	gl' au-	2G/	gl'au-	2B/	gl'
!LO:SIC:v:t=custos FF	!	!	!	!	!	!	!
!LO:LB:g=original	!	!	!	!	!	!	!
1FF	-gel-	1F	-gel-	4.A/	-gel-	4.c/	au-
.	.	.	.	8Bny/	.	8B/	-del-
.	.	.	.	8c/	.	8A/	.
.	.	.	.	8B/	.	8B/	.
.	.	.	.	8A/	.	8c/	.
.	.	.	.	8G/	.	8d/	.
=22-	=22-	=22-	=22-	=22-	=22-	=22-	=22-
1FF	-li	2F/	-li	2A/	.	2c/	.
.	.	4r	.	4.A/	-li	2c/	-li
.	.	4.F/	al-	.	.	.	.
.	.	.	.	8B/	.	.	.
4r	.	.	.	2c/	.	4r	.
.	.	8F/	-to	.	.	.	.
4.F\	al-	4A/	ri-	.	.	4.a\	al-
.	.	2c\	-ſpon-	4r	.	.	.
8F\	-to	.	.	.	.	8a\	-to
4A\	ri-	.	.	4.c/	al-	4cc\	ri-
=23-	=23-	=23-	=23-	=23-	=23-	=23-	=23-
2c\	-ſpon-	4C/	-de	.	.	2ee\	-ſpo-
.	.	.	.	8c/	-to	.	.
.	.	4.c\	al-	4e\	ri-	.	.
!	!	!	!	!	!	!LO:LB:g=original	!
4C/	-de	.	.	2g\	-ſpon-	2ee\	-de
.	.	8c\	-to	.	.	.	.
4C/	ri-	2e\	ri-	.	.	.	.
2c\	-ſpon-	.	.	4g\	-de	4r	.
!	!	!	!	!LO:LB:g=original	!	!	!
.	.	4g\	-ſpon-	4.c/	al-	4e/	ri-
!	!	!	!	!	!	!LO:SIC:v:t=custos e	!
4C/	-de	4g\	-de	.	.	2ee\	-ſpon-
.	.	.	.	8c/	-to	.	.
4C/	ri-	4.c\	/al-	4e\	ri-	.	.
!	!	!	!	!LO:SIC:v:t=custos g	!	!	!
=24-	=24-	=24-	=24-	=24-	=24-	=24-	=24-
2c\	-ſpon-	.	.	4.g\	-ſpon-	4e/	-de
.	.	8c\	-to	.	.	.	.
.	.	2e\	ri-	.	.	4e/	/ri-
.	.	.	.	8f\	.	.	.
2C/	-de	.	.	8e\	.	2ee\	-ſpon-
.	.	.	.	8d\	.	.	.
.	.	2g\	-ſpon-	2c/	.	.	.
1G	Quan-	.	.	.	.	2dd\	-de/
.	.	4d\	-de/	4B/	-de	.	.
.	.	1d\	Qua-	1g\	Qua-	1b\	Qua-
=25-	=25-	=25-	=25-	=25-	=25-	=25-	=25-
1D	-do	.	.	.	.	.	.
.	.	2d\	-do	2f#X\	-do	2a\	-do
4r	.	4r	.	4r	.	4r	.
2G\	qua-	2d\	quan-	2g\	quan-	2b\	quan-
4C/	-do	4e\	-do	4g\	-do	4cc\	-do
!	!	!LO:SIC:v:t=custos A	!	!	!	!	!
!	!	!LO:LB:g=original	!	!	!	!	!
=26-	=26-	=26-	=26-	=26-	=26-	=26-	=26-
8F\	can-	8A/	can-	2r	.	2r	.
8E\	.	8G/	.	.	.	.	.
8F\	.	8A\	.	.	.	.	.
8G\	.	8B\	.	.	.	.	.
4F\	.	4c\	.	8fny\	can-	8a\	can-
.	.	.	.	8e\	.	8g\	.
4F\	-tan	4c\	-tan	8f\	.	8a\	.
!LO:SIC:v:t=custos F	!	!	!	!	!	!	!
!LO:LB:g=original	!	!	!	!	!	!	!
.	.	.	.	8g\	.	8b\	.
8F\	can-	8A/	can-	4a\	.	4cc\	.
8E\	.	8G/	.	.	.	.	.
8F\	.	8A\	.	4a\	-tan	4cc\	-tan
8G\	.	8B\	.	.	.	.	.
2A\	.	2.c\	.	8e\	can-	8cc\	can-
.	.	.	.	8d\	.	8b\	.
.	.	.	.	8e\	.	8cc\	.
.	.	.	.	8f\	.	8dd\	.
=27-	=27-	=27-	=27-	=27-	=27-	=27-	=27-
4.E\	-ta	.	.	2g\	.	2ee\	.
.	.	4.B\	-ta	.	.	.	.
8F\	gl' au-	.	.	.	.	.	.
!	!	!	!	!LO:LB:g=original	!	!	!
2G\	-gei	.	.	4.d\	-ta	4.b\	-tan
.	.	8c\	gl' au-	.	.	.	.
.	.	2d\	-gei	.	.	.	.
!	!	!	!	!	!	!LO:LB:g=original	!
.	.	.	.	8e\	gl'au-	8cc\	gl' au-
!	!	!	!	!LO:SIC:v:t=custos f	!	!	!
1D	piu	.	.	2f\	-gei	2dd\	-gei
.	.	4A/	piu	.	.	.	.
.	.	1A\	ſco-	2F/	piu	2d/	piu
=28-	=28-	=28-	=28-	=28-	=28-	=28-	=28-
1.C	lie-	.	.	1c	lie-	1.e	lie-
.	.	2G/	.	.	.	.	.
.	.	2G/	.	2c/	-ue	.	.
2D/	-ue	4F/	.	1A/	ſco-	2d/	-ue
!	!	!	!	!	!	!LO:SIC:v:t=custos d	!
.	.	4E/	.	.	.	.	.
=29-	=29-	=29-	=29-	=29-	=29-	=29-	=29-
2.BB-X/	ſco-	0D	.	.	.	0d	ſco-
.	.	.	.	4G/	.	.	.
4AA/	.	.	.	4F/	.	.	.
4BBnyX/	.	.	.	4G/	.	.	.
4AA/	.	.	.	2A/	.	.	.
2BBX/	.	.	.	.	.	.	.
.	.	.	.	4G/	.	.	.
=30-	=30-	=30-	=30-	=30-	=30-	=30-	=30-
1AA	-te	1E	-te	2A/	-te	2c#X/	-te
.	.	.	.	2c/	Sia	2e/	Sia
1r	.	1r	.	2d\	ca-	2f/	ca-
.	.	.	.	2e\	-ſo od	2g/	-ſo od
=31-	=31-	=31-	=31-	=31-	=31-	=31-	=31-
2r	.	2r	.	2f\	ar-	2a\	ar-
4r	.	4r	.	2e\	-te	2g/	-te
4C/	hor	4c\	hor	.	.	.	.
!	!	!LO:SIC:v:t=custos A	!	!	!	!	!
4F\	ac-	4A/	ac-	2r	.	2r	.
4D/	-copa-	4B\	-copa-	.	.	.	.
4C/	-gna	4c\	-gna	2e\	Sia	2g/	Sia
!	!	!	!	!	!	!LO:LB:g=original	!
4C/	ed	4c\	ed	.	.	.	.
!LO:SIC:v:t=custos F	!	!LO:LB:g=original	!	!	!	!	!
=32-	=32-	=32-	=32-	=32-	=32-	=32-	=32-
2F\	ho-	2c\	ho-	2f\	ca-	2a\	ca-
2E\	-ra	4e\	-ra	2g\	-xo od	2b\	-xo od
.	.	4e\	Al-	.	.	.	.
2r	.	4c\	-ter-	2a\	ar-	2cc\	ar-
.	.	4A/	-na i	.	.	.	.
2E\	Sia	8e\	uer-	2g\	-te	4b\	-te
.	.	8d\	.	.	.	.	.
.	.	8c\	.	.	.	4ee\	Sie
.	.	8B\	.	.	.	.	.
=33-	=33-	=33-	=33-	=33-	=33-	=33-	=33-
2F\	ca-	4A/	.	4r	.	4cc\	ca-
.	.	4A/	-ſi	4f\	hor	2dd\	-ſo od
2G\	-ſo od	4B\	lor	4d\	ac-	.	.
.	.	4B\	Sia	4g\	-co-	4.ee\	ar-
!	!	!	!	!LO:SIC:v:t=custos e	!	!	!
!	!	!	!	!LO:LB:g=original	!	!	!
2A\	ar-	2c\	ca-	4.e\	-pa-	.	.
.	.	.	.	.	.	8dd\	.
!	!	!	!	!	!	!LO:LB:g=original	!
.	.	.	.	.	.	2cc\	.
.	.	.	.	8f\	.	.	.
2G\	-te	2d\	-xo	2g\	-gna	.	.
.	.	.	.	.	.	8b\	.
.	.	.	.	.	.	8a\	.
=34-	=34-	=34-	=34-	=34-	=34-	=34-	=34-
2r	.	2e\	od	4c/	ed	8g\	.
.	.	.	.	.	.	8a\	.
.	.	.	.	2g\	ho-	8b\	.
.	.	.	.	.	.	8g\	.
4r	.	2d\	art'	.	.	2a\	.
4D/	hor	.	.	4f#X\	.	.	.
4G\	ac-	4B\	hor	2g\	-ra	2g/	-te
!	!	!	!	!	!	!LO:SIC:v:t=custos dd	!
4E\	-co-	4c#X\	ac-	.	.	.	.
4D/	-pa-	4d\	-copa-	4r	.	4r	.
4D/	-gna	4A/	-gna	4d\	hor	4dd\	hor
!	!	!LO:SIC:v:t=custos d	!	!	!	!	!
!	!	!LO:LB:g=original	!	!	!	!	!
=35-	=35-	=35-	=35-	=35-	=35-	=35-	=35-
2r	.	2r	.	4g\	ac-	4b\	ac-
.	.	.	.	4e\	-copa-	4cc#X\	-copa-
4r	.	4r	.	4d\	-gna	4dd\	-gra
4D/	ed	4d\	ed	4f#X\	ed	4a\	ed
2G\	ho-	2d\	ho-	2g\	ho-	2b\	ho-
2F\	-ra	4f\	-ra	1a\	-ra	2cc#\	-ra
.	.	4cny\	Al-	.	.	.	.
=36-	=36-	=36-	=36-	=36-	=36-	=36-	=36-
4r	.	4A/	-ter-	.	.	4r	.
4B\	Al-	4F/	-na i	.	.	4ccny\	Al-
4A\	-ter-	4f\	ver-	2r	.	4cc\	-ter-
!LO:LB:g=original	!	!	!	!	!	!	!
4F\	-na i	4f\	-xi	.	.	4a\	-na i
!LO:SIC:v:t=custos c	!	!	!	!	!	!	!
8c\	ver-	2e\	lor	4r	.	8ee\	uer-
8B\	.	.	.	.	.	8dd\	.
8A\	.	.	.	4c/	Al-	8cc\	.
8G\	.	.	.	.	.	8b\	.
!	!	!	!	!LO:LB:g=original	!	!	!
4F\	.	2r	.	4c/	-ter-	4a\	.
4F\	-ſi	.	.	4d\	-na i	4a\	-ſi
=37-	=37-	=37-	=37-	=37-	=37-	=37-	=37-
4E\	lor	4r	.	8e\	ver-	4g#X/	lor
.	.	.	.	8d\	.	.	.
4A\	Al-	4e\	Al-	8c/	.	4a\	el
.	.	.	.	8B/	.	.	.
!	!	!	!	!	!	!LO:PB:g=original	!
4F\	-ter-	4d\	-ter-	4A/	.	2a\	ho-
4D/	-na i	4d\	-na i	4fny\	-ſi	.	.
!	!	!	!	!LO:SIC:v:t=custos e	!	!	!
8A\	ver-	8c\	ver-	4e\	lor	2a\	-ra
8G\	.	8B\	.	.	.	.	.
8F\	.	8A/	.	4a\	Al-	.	.
8E\	.	8G/	.	.	.	.	.
4D/	.	4.A/	.	4f\	-ter-	4r	.
4D/	-ſi	.	.	4d\	-na i	4f/	Al-
.	.	8B\	-ſi	.	.	.	.
=38-	=38-	=38-	=38-	=38-	=38-	=38-	=38-
2.C/	lor	4c\	lor	8g\	ver-	4e/	-ter-
.	.	.	.	8f\	.	.	.
.	.	4G/	Al-	8e\	.	4cny/	-na i
!	!	!	!	!	!	!LO:SIC:v:t=custos g	!
.	.	.	.	8d\	.	.	.
.	.	4E/	-ter-	4c/	.	8gny/	ver-
.	.	.	.	.	.	8f/	.
4G\	Al-	4C/	-na i	4c/	-ſi	8e/	.
!	!	!LO:SIC:v:t=custos G	!	!	!	!	!
.	.	.	.	.	.	8d/	.
4E\	-ter-	8G/	ver-	4e\	lor	4c/	.
.	.	8F/	.	.	.	.	.
4C/	-na i	8E/	.	4g\	Al-	4e/	-ſi
.	.	8D/	.	.	.	.	.
8G\	uer-	4C/	.	4e\	-ter-	4g/	lor
8F\	.	.	.	.	.	.	.
8E\	.	4C/	-ſi	4c/	-na i	4g/	Al-
8D\	.	.	.	.	.	.	.
!	!	!LO:PB:g=original	!	!	!	!	!
=39-	=39-	=39-	=39-	=39-	=39-	=39-	=39-
1C	.	4E/	lor	8g\	uer-	4e/	-ter-
.	.	.	.	8f\	.	.	.
.	.	2G/	Al-	8e\	.	4c/	-na i
.	.	.	.	8d\	.	.	.
.	.	.	.	4c/	.	8cc\	ver-
.	.	.	.	.	.	8b\	.
.	.	4c\	-ter-	4e\	-xi	8a\	.
.	.	.	.	.	.	8g\	.
!	!	!	!	!LO:LB:g=original	!	!	!
1D	-ſi	4A/	-na i	4r	.	4.f/	.
!LO:SIC:v:t=custos E	!	!	!	!	!	!	!
.	.	4.d\	ver-	4A/	i	.	.
!LO:PB:g=original	!	!	!	!	!	!LO:LB:g=original	!
.	.	.	.	.	.	8e/	.
.	.	.	.	8f\	ver-	4d/	.
.	.	8c\	.	8e\	.	.	.
.	.	8B\	.	8d\	.	4f/	-ſi
.	.	8A\	.	8c\	.	.	.
=40-	=40-	=40-	=40-	=40-	=40-	=40-	=40-
1E	lor	4G#X/	.	4B/	.	1e	lor-
.	.	4A/	-ſi	4A/	-ſi	.	.
!	!	!	!	!LO:SIC:v:t=custos e	!	!	!
.	.	2B\	lor	2G#X/	lor	.	.
1A	la	2r	.	2r	.	2e/	-la
.	.	2c#X\	la	2e\	la	2.a\	Mu-
=41-	=41-	=41-	=41-	=41-	=41-	=41-	=41-
2.D/	Mu-	2.d\	Mu-	2.f\	Mu-	.	.
.	.	.	.	.	.	4a\	-ſi-
.	.	.	.	.	.	1a	-ca
4D/	-ſi-	4d\	-ſi-	4f\	-ſi-	.	.
2AA/	-ca	1c#X	-ca	1e	-ca	.	.
!	!	!LO:SIC:v:t=custos c	!	!	!	!LO:SIC:v:t=custos a	!
1A\	la	.	.	.	.	2e/	la
!	!	!LO:LB:g=original	!	!	!	!	!
=42-	=42-	=42-	=42-	=42-	=42-	=42-	=42-
.	.	2cny\	la	2e\	la	2.a\	Mu-
2.D/	Mu-	2.d\	Mu-	2.f\	Mu-	.	.
.	.	.	.	.	.	4a\	-ſi-
.	.	.	.	.	.	2a\	-ca
4D/	-ſi-	4d\	-ſi-	4f\	-ſi-	.	.
2AA/	-ca	2c#X\	-ca	2e\	-ca	2r	.
=43-	=43-	=43-	=43-	=43-	=43-	=43-	=43-
1r	.	2r	.	2r	.	4d/	o-
.	.	.	.	.	.	4e/	.
.	.	2D/	la	4d\	o-	4f/	.
.	.	.	.	4e\	.	4g/	.
4D/	o-	2.d\	Mu-	4f\	.	2.a\	.
4E\	.	.	.	4g\	.	.	.
4F\	.	.	.	4a\	.	.	.
4G\	.	4d\	-ſi-	8g\	.	4b\	.
.	.	.	.	8f\	.	.	.
=44-	=44-	=44-	=44-	=44-	=44-	=44-	=44-
8A\	.	8cny\	-ca	4e\	.	4cc\	.
8G\	.	8B\	o-	.	.	.	.
8F\	.	8A/	.	2f\	.	4c/	.
8E\	.	8Gny/	.	.	.	.	.
4D/	.	4A/	.	.	.	4f/	.
8C/	.	4B\	.	8e\	.	4g/	.
8BB/	.	.	.	8d\	.	.	.
4AA/	.	4B\	.	8e\	.	4a\	.
.	.	.	.	8f\	.	.	.
4BB/	.	4c\	.	4.g\	.	4d/	.
4C/	.	4.A/	.	.	.	4e/	.
.	.	.	.	16f\	.	.	.
.	.	.	.	16e\	.	.	.
4D/	.	.	.	2d\	.	4f/	.
.	.	8B\	.	.	.	.	.
=45-	=45-	=45-	=45-	=45-	=45-	=45-	=45-
1E	.	4G#X/	.	.	.	1e	.
.	.	2A/	.	4c/	.	.	.
.	.	.	.	2B/	.	.	.
.	.	4G#X/	.	.	.	.	.
0.AA	-ra.	0.A	-ra.	0.c#X	-ra.	0.e	-ra.
=46-	=46-	=46-	=46-	=46-	=46-	=46-	=46-
.	.	.	.	.	.	.	.
=-	=-	=-	=-	=-	=-	=-	=-
*-	*-	*-	*-	*-	*-	*-	*-
!!!system-decoration: [(s1,s2,s3,s4)]
!!!ENC: Berenika Jozajtis
!!!END: 2022-06-27
!!!ENC: Urszula Świątek
!!!END: 2022-07-12
